src/assets/filled/Brush.svg

<svg width="24" height="24" viewBox="0 0 24 24"  xmlns="http://www.w3.org/2000/svg">
<path d="M6 2H18C19.1 2 20 2.9 20 4V7.32C20 7.87 19.55 8.32 19 8.32H5C4.45 8.32 4 7.87 4 7.32V4C4 2.9 4.9 2 6 2Z" />
<path d="M4 10.3198V11.8798C4 12.9598 4.58 13.9598 5.53 14.4898L8.49 16.1598C9.12 16.5098 9.51 17.1798 9.51 17.8998V19.9998C9.51 21.0998 10.41 21.9998 11.51 21.9998H12.51C13.61 21.9998 14.51 21.0998 14.51 19.9998V17.8998C14.51 17.1798 14.9 16.5098 15.53 16.1598L18.49 14.4898C19.43 13.9598 20.02 12.9598 20.02 11.8798V10.3198C20.02 9.76982 19.57 9.31982 19.02 9.31982H5C4.45 9.31982 4 9.75982 4 10.3198Z" />
</svg>

<?xml version="1.0" encoding="UTF-8"?>
<svg width="24" height="24" viewBox="0 0 24 24" xmlns="http://www.w3.org/2000/svg">
 <path d="m6 2h12c1.1 0 2 0.9 2 2v3.32c0 0.55-0.45 1-1 1h-14c-0.55 0-1-0.45-1-1v-3.32c0-1.1 0.9-2 2-2z"/>
 <path d="m4 10.32v1.56c0 1.08 0.58 2.08 1.53 2.61l2.96 1.67c0.63 0.35 1.02 1.02 1.02 1.74v2.1c0 1.1 0.9 2 2 2h1c1.1 0 2-0.9 2-2v-2.1c0-0.72 0.39-1.39 1.02-1.74l2.96-1.67c0.94-0.53 1.53-1.53 1.53-2.61v-1.56c0-0.54998-0.45-0.99998-1-0.99998h-14.02c-0.55 0-1 0.44-1 0.99998z"/>
</svg>
